Origami/24x24/apps/trackma.svg

<svg width="24" height="24" version="1" xmlns="http://www.w3.org/2000/svg">
 <path d="M 13.144656,2.5000001 10.25802,6.6366426 A 8.0851065,8.1632685 0 0 0 7.922499,7.9360566 C 5.049209,7.2409386 2,9.5718996 2,9.5718996 L 4.958486,15.744586 A 8.0851065,8.1632685 0 0 0 12.914893,22.5 8.0851065,8.1632685 0 0 0 21,14.336737 8.0851065,8.1632685 0 0 0 17.758851,7.8132976 C 17.266724,4.4025639 13.144656,2.5000001 13.144656,2.5000001 Z" style="opacity:.2"/>
 <path d="M 13.144656,1.9999999 10.25802,6.1366424 A 8.0851065,8.1632685 0 0 0 7.9224984,7.4360564 C 5.0492084,6.7409384 2,9.0718994 2,9.0718994 L 4.9584859,15.244586 A 8.0851065,8.1632685 0 0 0 12.914893,22 8.0851065,8.1632685 0 0 0 21,13.836737 8.0851065,8.1632685 0 0 0 17.758851,7.3132974 C 17.266724,3.9025637 13.144656,1.9999999 13.144656,1.9999999 Z" style="fill:#21a8e3"/>
 <path d="m3.9147727 9.5000849c-0.2863052 0.00145-0.5912433 0.030615-0.9147728 0.093544 0 0 2.0067465 0.2078785 3.004972 1.4795001-0.4210895 1.662407-0.970171 2.926871-0.970171 2.926871l1.9651991-3.216189s-1.0810916-1.2968506-3.0852273-1.2837121z" style="fill:#ffffff"/>
 <path d="m13.5 3.5000587-2 3.4999413 1.219512-0.3422765s0.615019-1.4597181 0.780488-3.1577235z" style="fill:#ffffff"/>
 <path d="m9.4160056 14.954961a1.5001325 1.5053243 0 0 0 -0.3257971 1.554575 1.5001325 1.5053243 0 0 0 1.9227365 0.899682 1.5001325 1.5053243 0 0 0 0.896589 -1.929383 1.5001325 1.5053243 0 0 0 -1.24506 -0.979835l-0.0049 0.101367-0.07428 1.629059-1.1004315-1.20003z" style="opacity:.2"/>
 <path d="m15.416005 11.95496a1.5001325 1.5053243 0 0 0 -0.325797 1.554575 1.5001325 1.5053243 0 0 0 1.922737 0.899682 1.5001325 1.5053243 0 0 0 0.896589 -1.929383 1.5001325 1.5053243 0 0 0 -1.24506 -0.979835l-0.0049 0.101367-0.07428 1.629059-1.100432-1.20003z" style="opacity:.2"/>
 <path d="m9.4160056 14.454961a1.5001325 1.5053243 0 0 0 -0.3257971 1.554575 1.5001325 1.5053243 0 0 0 1.9227365 0.899682 1.5001325 1.5053243 0 0 0 0.896589 -1.929383 1.5001325 1.5053243 0 0 0 -1.24506 -0.979835l-0.0049 0.101367-0.07428 1.629059-1.1004315-1.20003z" style="fill:#ffffff"/>
 <path d="m15.416006 11.454961a1.5001327 1.5053242 0 0 0 -0.325797 1.554575 1.5001327 1.5053242 0 0 0 1.922737 0.899682 1.5001327 1.5053242 0 0 0 0.896588 -1.929383 1.5001327 1.5053242 0 0 0 -1.24506 -0.979835l-0.0049 0.101367-0.07428 1.629058-1.100433-1.200029z" style="fill:#ffffff"/>
 <path d="m17.493357 17.500113a0.51703145 0.476698 0 0 0 -0.05116 0.0012 0.51703145 0.476698 0 0 0 -0.348693 0.161982c-0.212963 0.217431-0.639886 0.266224-1.096561 0.208541-0.408103-0.05148-0.718837-0.159895-0.788934-0.184955a0.51703145 0.476698 0 0 0 -0.242334 -0.05953 0.51703145 0.476698 0 0 0 -0.54256 0.509531c-0.02466 0.11294-0.0838 0.35788-0.230217 0.664087-0.185943 0.388869-0.458315 0.699498-0.770758 0.75285a0.517556 0.47718154 0 0 0 0.188482 0.938405c0.830667-0.141831 1.280709-0.787763 1.528727-1.306445 0.08011-0.16755 0.137746-0.323918 0.185789-0.468585 0.158848 0.03821 0.332673 0.07507 0.529096 0.0999 0.609126 0.07699 1.441142 0.06237 2.007336-0.515745a0.51703145 0.476698 0 0 0 -0.368214 -0.801257z" style="opacity:.2"/>
 <path d="m17.493357 17.000113a0.51703145 0.476698 0 0 0 -0.05116 0.0012 0.51703145 0.476698 0 0 0 -0.348693 0.161982c-0.212963 0.217431-0.639886 0.266224-1.096561 0.208541-0.408103-0.05148-0.718837-0.159895-0.788934-0.184955a0.51703145 0.476698 0 0 0 -0.242334 -0.05953 0.51703145 0.476698 0 0 0 -0.54256 0.509531c-0.02466 0.11294-0.0838 0.35788-0.230217 0.664087-0.185943 0.388869-0.458315 0.699498-0.770758 0.75285a0.517556 0.47718154 0 0 0 0.188482 0.938405c0.830667-0.141831 1.280709-0.787763 1.528727-1.306445 0.08011-0.16755 0.137746-0.323918 0.185789-0.468585 0.158848 0.03821 0.332673 0.07507 0.529096 0.0999 0.609126 0.07699 1.441142 0.06237 2.007336-0.515745a0.51703145 0.476698 0 0 0 -0.368214 -0.801257z" style="fill:#ffffff"/>
 <path d="m13.144531 1.9999999-2.886719 4.136719a8.0851065 8.1632685 0 0 0 -2.3349606 1.298828c-2.8732899-0.695118-5.9228515 1.6367185-5.9228515 1.6367185l0.180664 0.3769532c0.4609255-0.3324852 3.118122-2.1484962 5.7421875-1.5136717a8.0851065 8.1632685 0 0 1 2.3349606 -1.298828l2.886719-4.136719s4.122131 1.9027426 4.614258 5.3134765a8.0851065 8.1632685 0 0 1 3.230469 6.3164066 8.0851065 8.1632685 0 0 0 0.010742 -0.292969 8.0851065 8.1632685 0 0 0 -3.241211 -6.5234376c-0.492127-3.4107337-4.614258-5.3134765-4.614258-5.3134765z" style="fill:#ffffff;opacity:.2"/>
</svg>

<svg xmlns="http://www.w3.org/2000/svg" width="24" height="24" version="1">
 <path style="opacity:0.2" d="M 13.144656,2.5000001 10.25802,6.6366426 A 8.0851065,8.1632685 0 0 0 7.922499,7.9360566 C 5.049209,7.2409386 2,9.5718996 2,9.5718996 L 4.958486,15.744586 A 8.0851065,8.1632685 0 0 0 12.914893,22.5 8.0851065,8.1632685 0 0 0 21,14.336737 8.0851065,8.1632685 0 0 0 17.758851,7.8132976 C 17.266724,4.4025639 13.144656,2.5000001 13.144656,2.5000001 Z"/>
 <path style="fill:#21a8e3" d="M 13.144656,1.9999999 10.25802,6.1366424 A 8.0851065,8.1632685 0 0 0 7.9224984,7.4360564 C 5.0492084,6.7409384 2,9.0718994 2,9.0718994 L 4.9584859,15.244586 A 8.0851065,8.1632685 0 0 0 12.914893,22 8.0851065,8.1632685 0 0 0 21,13.836737 8.0851065,8.1632685 0 0 0 17.758851,7.3132974 C 17.266724,3.9025637 13.144656,1.9999999 13.144656,1.9999999 Z"/>
 <path style="fill:#ffffff" d="m 3.9147727,9.5000849 c -0.2863052,0.00145 -0.5912433,0.030615 -0.9147728,0.093544 0,0 2.0067465,0.2078785 3.004972,1.4795001 C 5.5838824,12.735536 5.0348009,14 5.0348009,14 L 7,10.783811 c 0,0 -1.0810916,-1.2968506 -3.0852273,-1.2837121 z"/>
 <path style="fill:#ffffff" d="M 13.5,3.5000587 11.5,7 12.719512,6.6577235 c 0,0 0.615019,-1.4597181 0.780488,-3.1577235 z"/>
 <path style="opacity:0.2" d="M 9.4160056,14.954961 A 1.5001325,1.5053243 0 0 0 9.0902085,16.509536 1.5001325,1.5053243 0 0 0 11.012945,17.409218 1.5001325,1.5053243 0 0 0 11.909534,15.479835 1.5001325,1.5053243 0 0 0 10.664474,14.5 l -0.0049,0.101367 -0.07428,1.629059 -1.1004315,-1.20003 z"/>
 <path style="opacity:0.2" d="m 15.416005,11.95496 a 1.5001325,1.5053243 0 0 0 -0.325797,1.554575 1.5001325,1.5053243 0 0 0 1.922737,0.899682 1.5001325,1.5053243 0 0 0 0.896589,-1.929383 1.5001325,1.5053243 0 0 0 -1.24506,-0.979835 l -0.0049,0.101367 -0.07428,1.629059 -1.100432,-1.20003 z"/>
 <path style="fill:#ffffff" d="M 9.4160056,14.454961 A 1.5001325,1.5053243 0 0 0 9.0902085,16.009536 1.5001325,1.5053243 0 0 0 11.012945,16.909218 1.5001325,1.5053243 0 0 0 11.909534,14.979835 1.5001325,1.5053243 0 0 0 10.664474,14 l -0.0049,0.101367 -0.07428,1.629059 -1.1004315,-1.20003 z"/>
 <path style="fill:#ffffff" d="m 15.416006,11.454961 a 1.5001327,1.5053242 0 0 0 -0.325797,1.554575 1.5001327,1.5053242 0 0 0 1.922737,0.899682 1.5001327,1.5053242 0 0 0 0.896588,-1.929383 A 1.5001327,1.5053242 0 0 0 16.664474,11 l -0.0049,0.101367 -0.07428,1.629058 -1.100433,-1.200029 z"/>
 <path style="opacity:0.2" d="m 17.493357,17.500113 a 0.51703145,0.476698 0 0 0 -0.05116,0.0012 0.51703145,0.476698 0 0 0 -0.348693,0.161982 c -0.212963,0.217431 -0.639886,0.266224 -1.096561,0.208541 -0.408103,-0.05148 -0.718837,-0.159895 -0.788934,-0.184955 a 0.51703145,0.476698 0 0 0 -0.242334,-0.05953 0.51703145,0.476698 0 0 0 -0.54256,0.509531 c -0.02466,0.11294 -0.0838,0.35788 -0.230217,0.664087 -0.185943,0.388869 -0.458315,0.699498 -0.770758,0.75285 a 0.517556,0.47718154 0 0 0 0.188482,0.938405 c 0.830667,-0.141831 1.280709,-0.787763 1.528727,-1.306445 0.08011,-0.16755 0.137746,-0.323918 0.185789,-0.468585 0.158848,0.03821 0.332673,0.07507 0.529096,0.0999 0.609126,0.07699 1.441142,0.06237 2.007336,-0.515745 a 0.51703145,0.476698 0 0 0 -0.368214,-0.801257 z"/>
 <path style="fill:#ffffff" d="m 17.493357,17.000113 a 0.51703145,0.476698 0 0 0 -0.05116,0.0012 0.51703145,0.476698 0 0 0 -0.348693,0.161982 c -0.212963,0.217431 -0.639886,0.266224 -1.096561,0.208541 -0.408103,-0.05148 -0.718837,-0.159895 -0.788934,-0.184955 a 0.51703145,0.476698 0 0 0 -0.242334,-0.05953 0.51703145,0.476698 0 0 0 -0.54256,0.509531 c -0.02466,0.11294 -0.0838,0.35788 -0.230217,0.664087 -0.185943,0.388869 -0.458315,0.699498 -0.770758,0.75285 a 0.517556,0.47718154 0 0 0 0.188482,0.938405 c 0.830667,-0.141831 1.280709,-0.787763 1.528727,-1.306445 0.08011,-0.16755 0.137746,-0.323918 0.185789,-0.468585 0.158848,0.03821 0.332673,0.07507 0.529096,0.0999 0.609126,0.07699 1.441142,0.06237 2.007336,-0.515745 a 0.51703145,0.476698 0 0 0 -0.368214,-0.801257 z"/>
 <path style="opacity:0.2;fill:#ffffff" d="m 13.144531,1.9999999 -2.886719,4.136719 A 8.0851065,8.1632685 0 0 0 7.9228514,7.4355469 C 5.0495615,6.7404289 1.9999999,9.0722654 1.9999999,9.0722654 l 0.180664,0.3769532 C 2.6415894,9.1167334 5.2987859,7.3007224 7.9228514,7.9355469 a 8.0851065,8.1632685 0 0 1 2.3349606,-1.298828 l 2.886719,-4.136719 c 0,0 4.122131,1.9027426 4.614258,5.3134765 A 8.0851065,8.1632685 0 0 1 20.989258,14.129883 8.0851065,8.1632685 0 0 0 21,13.836914 8.0851065,8.1632685 0 0 0 17.758789,7.3134764 C 17.266662,3.9027427 13.144531,1.9999999 13.144531,1.9999999 Z"/>
</svg>
